X:1
T: The Black Rogue
C:
R:Jig
Q:180
K:Em
M:6/8
L:1/16
g2|d2B2B2 B2A2B2|d2B2B2 B4g2|d2B2B2 B2A2B2|G2E2E2 E4g2|d2B2B2 B2A2B2|d2B2B2 B2A2G2|A2B2c2 B2A2B2|G2E2E2 E4g2|
d2B2B2 B2A2B2|d2B2B2 B4g2|d2B2B2 B2A2B2|G2E2E2 E4g2|d2B2B2 B2A2B2|d2B2B2 B2A2G2|A2B2c2 B2A2B2|G2E2E2 E4d2|
g2f2g2 a2g2a2|b2g2e2 e2d2B2|g2f2g2 a2g2a2|b2g2e2 e3fga|b2a2g2 a2g2f2|g2e2f2 g4e2|d2B2B2 B2A2B2|G2E2E2 E4d2|
g2f2g2 a2g2a2|b2g2e2 e2d2B2|g2f2g2 a2g2a2|b2g2e2 e3fga|b2a2g2 a2g2f2|g2e2f2 g4e2|d2B2B2 B2A2B2|G2E2E2 E4||
